src/app/components/images/Logo4.svg

<svg width="63" height="24" viewBox="0 0 63 24" fill="none" xmlns="http://www.w3.org/2000/svg">
<g clip-path="url(#clip0_1_118)">
<path d="M14.9936 0C12.5568 0 10.2197 0.96804 8.4966 2.69117L2.87305 8.31472C1.14992 10.0378 0.181885 12.3749 0.181885 14.8118C0.181885 19.8863 4.2956 24 9.37012 24C11.807 24 14.144 23.0319 15.8672 21.3088L19.757 17.419C19.757 17.4189 19.7571 17.419 19.757 17.419L31.0907 6.08528C31.9136 5.26233 33.0298 4.8 34.1936 4.8C36.1421 4.8 37.794 6.06993 38.3668 7.82726L41.9436 4.25037C40.3119 1.69467 37.4507 0 34.1936 0C31.7568 0 29.4197 0.96804 27.6966 2.69117L12.4731 17.9147C11.6501 18.7377 10.534 19.2 9.37012 19.2C6.94656 19.2 4.98188 17.2354 4.98188 14.8118C4.98188 13.6479 5.44421 12.5318 6.26716 11.7088L11.8907 6.08528C12.7136 5.26233 13.8298 4.8 14.9936 4.8C16.9422 4.8 18.594 6.06998 19.1668 7.82737L22.7437 4.25046C21.112 1.69472 18.2508 0 14.9936 0Z" fill="#FEFAEE"/>
<path d="M31.6732 17.9147C30.8502 18.7377 29.7341 19.2 28.5702 19.2C26.622 19.2 24.9702 17.9304 24.3974 16.1734L20.8206 19.7502C22.4524 22.3055 25.3134 24 28.5702 24C31.0071 24 33.3442 23.0319 35.0673 21.3088L50.2908 6.08528C51.1138 5.26233 52.2299 4.8 53.3938 4.8C55.8174 4.8 57.782 6.76467 57.782 9.18824C57.782 10.3521 57.3197 11.4682 56.4967 12.2912L50.8732 17.9147C50.0502 18.7377 48.9341 19.2 47.7702 19.2C45.8218 19.2 44.17 17.9302 43.5972 16.173L40.0204 19.7498C41.6522 22.3054 44.5133 24 47.7702 24C50.2071 24 52.5442 23.0319 54.2673 21.3088L59.8908 15.6853C61.6139 13.9622 62.582 11.6251 62.582 9.18824C62.582 4.11371 58.4683 0 53.3938 0C50.9569 0 48.6198 0.96804 46.8967 2.69117L31.6732 17.9147Z" fill="#FEFAEE"/>
</g>
<defs>
<clipPath id="clip0_1_118">
<rect width="62.4" height="24" fill="white" transform="translate(0.181885)"/>
</clipPath>
</defs>
</svg>

<svg xmlns="http://www.w3.org/2000/svg" width="63" height="24" fill="none" viewBox="0 0 63 24"><g fill="#fefaee" clip-path="url(#a)"><path d="M14.994 0a9.2 9.2 0 0 0-6.497 2.691L2.873 8.315a9.188 9.188 0 1 0 12.994 12.994l3.89-3.89L31.091 6.085a4.388 4.388 0 0 1 7.276 1.742l3.577-3.577a9.188 9.188 0 0 0-14.247-1.56L12.473 17.916a4.388 4.388 0 1 1-6.206-6.206l5.624-5.624a4.388 4.388 0 0 1 7.276 1.742l3.577-3.577A9.18 9.18 0 0 0 14.994 0"/><path d="M31.673 17.915a4.388 4.388 0 0 1-7.276-1.742l-3.576 3.577a9.188 9.188 0 0 0 14.247 1.559L50.29 6.085a4.388 4.388 0 0 1 6.206 6.206l-5.624 5.624a4.388 4.388 0 0 1-7.276-1.742L40.02 19.75a9.188 9.188 0 0 0 14.247 1.559l5.624-5.624A9.188 9.188 0 0 0 46.897 2.691z"/></g><defs><clipPath id="a"><path fill="#fff" d="M.182 0h62.4v24H.182z"/></clipPath></defs></svg>
